theme/assets/images/ico_star.svg

<svg width="16" height="14" viewBox="0 0 16 14" fill="black" xmlns="http://www.w3.org/2000/svg"><path d="M15.3173 5.31616C15.2667 5.16049 15.1322 5.04703 14.9702 5.02353L10.4205 4.36238L8.3858 0.239663C8.31339 0.0929015 8.16391 0 8.00026 0C7.83659 0 7.68713 0.0929015 7.61469 0.239663L5.57986 4.36238L1.03024 5.02353C0.868318 5.04703 0.733738 5.16049 0.683174 5.31614C0.632581 5.47181 0.674775 5.64268 0.791984 5.75691L4.08404 8.96601L3.307 13.4974C3.27931 13.6587 3.34564 13.8217 3.47804 13.9179C3.55294 13.9723 3.64166 14 3.73081 14C3.79926 14 3.86794 13.9837 3.93083 13.9506L8.00023 11.8112L12.0695 13.9506C12.2144 14.0267 12.3899 14.0141 12.5223 13.9179C12.6547 13.8217 12.721 13.6586 12.6934 13.4973L11.9161 8.96601L15.2085 5.75688C15.3257 5.64268 15.3679 5.47181 15.3173 5.31616Z"/></svg>

<svg xmlns="http://www.w3.org/2000/svg" width="16" height="14"><path d="M15.317 5.316a.43.43 0 0 0-.347-.292l-4.55-.662L8.387.24a.43.43 0 0 0-.771 0L5.58 4.362l-4.55.662a.43.43 0 0 0-.238.733l3.292 3.209-.777 4.531a.43.43 0 0 0 .624.454L8 11.81l4.069 2.14a.43.43 0 0 0 .623-.454l-.777-4.531 3.293-3.21a.43.43 0 0 0 .108-.44"/></svg>
